app/assets/v2/images/kudos/cellarius/Triangle.svg

<svg version="1.1" id="Layer_1" xmlns="http://www.w3.org/2000/svg" x="0" y="0" viewBox="0 0 110.9 128" xml:space="preserve"><style>.st3{fill:#df9079}</style><path fill="#766a68" d="M55.4 128l55.5-32V32L55.4 0 0 32v64z"/><path d="M101.4 37.4v53.1l-46 26.6-46-26.6V37.4l46-26.6 46 26.6zm9.5 58.6V32L55.4 0 0 32v64l55.4 32 55.5-32z" opacity=".38" fill="#df9079"/><path class="st3" d="M99.1 38.8v50.4l-43.7 25.2-43.6-25.2V38.8l43.7-25.2 43.6 25.2zm-43.7 78.3l46-26.6V37.4l-46-26.6-46 26.6v53.1l46 26.6z" opacity=".13"/><path class="st3" d="M52.5 46L27.7 88.2h57.1l2.7-5-52 .1 19.4-33z"/><path class="st3" d="M26 87.2l26.5-45.1 19.2 32.8h4.8L52 32.7 23.4 82.6z"/><path fill="#e6d9a5" d="M87.4 81.2L58.7 31.8h-5.1l26.3 45.1-38.6.2-2.6 4.2z"/></svg>

<?xml version="1.0" encoding="utf-8"?>
<!-- Generator: Adobe Illustrator 22.1.0, SVG Export Plug-In . SVG Version: 6.00 Build 0)  -->
<svg version="1.1" id="Layer_1" xmlns="http://www.w3.org/2000/svg" xmlns:xlink="http://www.w3.org/1999/xlink" x="0px" y="0px"
	 viewBox="0 0 110.9 128" style="enable-background:new 0 0 110.9 128;" xml:space="preserve">
<style type="text/css">
	.st0{fill:#766A68;}
	.st1{opacity:0.38;fill:#DF9079;}
	.st2{opacity:0.13;}
	.st3{fill:#DF9079;}
	.st4{fill:#E6D9A5;}
	.st5{fill:none;stroke:#DF9079;stroke-width:3;stroke-miterlimit:10;}
</style>
<g>
	<polygon class="st0" points="55.4,128 110.9,96 110.9,32 55.4,0 55.4,0 0,32 0,96 	"/>
	<path class="st1" d="M101.4,37.4l0,53.1l-46,26.6l-46-26.6l0-53.1l46-26.6L101.4,37.4z M110.9,96l0-64L55.4,0l0,0L0,32l0,64
		l55.4,32L110.9,96z"/>
	<g class="st2">
		<path class="st3" d="M99.1,38.8l0,50.4l-43.7,25.2L11.8,89.2l0-50.4l43.7-25.2L99.1,38.8z M55.4,117.1l46-26.6l0-53.1l-46-26.6
			l-46,26.6l0,53.1L55.4,117.1z"/>
	</g>
	<g>
		<polygon class="st3" points="52.5,46 27.7,88.2 84.8,88.2 87.5,83.2 35.5,83.3 54.9,50.3 		"/>
		<polygon class="st3" points="26,87.2 52.5,42.1 71.7,74.9 76.5,74.9 52,32.7 23.4,82.6 		"/>
		<polygon class="st4" points="87.4,81.2 58.7,31.8 53.6,31.8 79.9,76.9 41.3,77.1 38.7,81.3 		"/>
	</g>
</g>
</svg>
